!! 00000] TT[WS
!!!OTL: Haishu kaihua suifenfen
!!!ARE: Asia, China, Shanxi Xixian
!! Ethnic Group: Han
!! WII, 237 (1)
!!!SCT: J0757
!!!YEM: Copyright 1995, estate of Helmut Schaffrath.
**kern
*ICvox
*Ivox
*M2/4
*k[f#]
*G:
{4a
8e
8g
=1
4a
4a
=2
4dd
4dd
=3
8dd
8ee
4cc}
=4
{4a
8e
8g
=5
4a
4cc
=6
4d
8e
8c
=7
2d}
=8
{4a
8e
8g
=9
4a
4a
=10
4dd
4dd
=11
8dd
8ee
4cc}
=12
{8b
8a
4g
=13
8.a
16a
8.a
16cc
=14
8a
8g
8e
8c
=15
2d}
==
!!!AGN: Xiaodiao. XÅshi, Xinminge
!!!ONB: ESAC (Essen Associative Code) Database: CHINA
!!!AMT: simple duple
!!!AIN: vox
!!!EED: Helmut Schaffrath
!!!EEV: 1.0
*-
